icons/footer-bank-3.svg

<svg width="25" height="25" viewBox="0 0 25 25" fill="none" xmlns="http://www.w3.org/2000/svg">
<path opacity="0.5" d="M0 0H25V12.5732C25 15.7964 23.2805 18.7748 20.4893 20.3866L12.5 25L4.51074 20.3866C1.71946 18.7748 0 15.7964 0 12.5732V0Z" fill="white"/>
<path fill-rule="evenodd" clip-rule="evenodd" d="M6.86108 6.61719V10.5277C7.39583 9.92385 8.3681 9.51516 9.47976 9.51516H10.6878V14.0611C10.6878 15.2705 10.3592 16.3291 9.87165 16.9114H15.1265C14.6399 16.3285 14.3121 15.2713 14.3121 14.0634V9.51516H15.5202C16.6318 9.51516 17.6041 9.92385 18.1389 10.5277V6.61719H6.86108Z" fill="white"/>
</svg>

<svg xmlns="http://www.w3.org/2000/svg" width="25" height="25" fill="none"><path fill="#fff" d="M0 0h25v12.573a9.02 9.02 0 0 1-4.51 7.814L12.5 25l-7.99-4.613A9.02 9.02 0 0 1 0 12.573z" opacity=".5"/><path fill="#fff" fill-rule="evenodd" d="M6.861 6.617v3.91c.535-.603 1.507-1.012 2.619-1.012h1.208v4.546c0 1.21-.329 2.268-.816 2.85h5.255c-.487-.583-.815-1.64-.815-2.848V9.515h1.208c1.112 0 2.084.409 2.619 1.013v-3.91z" clip-rule="evenodd"/></svg>
